openmetadata-ui/src/main/resources/ui/src/assets/svg/Reaction.svg

<svg width="14" height="15" viewBox="0 0 14 15" fill="none" xmlns="http://www.w3.org/2000/svg">
<g clip-path="url(#clip0_10007_14856)">
<path fill-rule="evenodd" clip-rule="evenodd" d="M5.03841 2.87877C4.83519 2.70366 4.8855 2.37817 5.14049 2.29486C5.72618 2.1035 6.35123 2 7 2C10.3084 2 13 4.69156 13 8C13 11.3084 10.3084 14 7 14C3.69156 14 1 11.3084 1 8C1 6.93759 1.27755 5.93879 1.76395 5.07231C1.87427 4.87577 2.14026 4.84902 2.2997 5.00831V5.00831C2.41698 5.12548 2.43682 5.30744 2.35684 5.45265C1.94028 6.20891 1.70313 7.07728 1.70313 8C1.70313 10.9207 4.07928 13.2969 7 13.2969C9.92072 13.2969 12.2969 10.9207 12.2969 8C12.2969 5.07928 9.92072 2.70313 7 2.70313C6.44331 2.70313 5.90639 2.78945 5.40195 2.94941C5.27636 2.98924 5.13822 2.96477 5.03841 2.87877V2.87877Z" fill="#37352f" stroke="#37352f" stroke-width="0.1"/>
<path d="M4.9454 4.05714H3.65968V5.34286C3.65968 5.48429 3.54397 5.6 3.40254 5.6C3.26111 5.6 3.1454 5.48429 3.1454 5.34286V4.05714H1.85968C1.71825 4.05714 1.60254 3.94143 1.60254 3.8C1.60254 3.65857 1.71825 3.54286 1.85968 3.54286H3.1454V2.25714C3.1454 2.11571 3.26111 2 3.40254 2C3.54397 2 3.65968 2.11571 3.65968 2.25714V3.54286H4.9454C5.08682 3.54286 5.20254 3.65857 5.20254 3.8C5.20254 3.94143 5.08682 4.05714 4.9454 4.05714Z" fill="#37352f" stroke="#37352f" stroke-width="0.3"/>
<path d="M8.75563 7.27118C8.99092 7.03589 9.30376 6.90625 9.63655 6.90625C9.96925 6.90625 10.2821 7.03589 10.5177 7.27136C10.655 7.4086 10.8775 7.40851 11.0148 7.27118C11.152 7.13385 11.1519 6.91119 11.0146 6.77396C10.6465 6.40591 10.157 6.20312 9.63655 6.20312C9.11598 6.20312 8.62654 6.40591 8.25841 6.77396L8.25822 6.77414C8.1209 6.91147 8.12099 7.13394 8.25832 7.27127C8.39565 7.4086 8.6183 7.40842 8.75563 7.27118V7.27118Z" fill="#37352f" stroke="#37352f" stroke-width="0.1"/>
<path d="M3.4821 7.27118C3.71748 7.03589 4.03032 6.90625 4.36302 6.90625C4.69582 6.90625 5.00865 7.03589 5.24422 7.27136C5.38155 7.4086 5.60411 7.40851 5.74135 7.27118C5.87859 7.13385 5.87849 6.91119 5.74117 6.77396C5.37303 6.40591 4.88359 6.20312 4.36302 6.20312C3.84254 6.20312 3.3531 6.40591 2.98497 6.77396L2.98479 6.77414C2.84746 6.91147 2.84755 7.13394 2.98488 7.27127C3.12221 7.4086 3.34486 7.40842 3.4821 7.27118Z" fill="#37352f" stroke="#37352f" stroke-width="0.1"/>
<path d="M10.2901 8.29297H3.70486C3.53515 8.29297 3.39746 8.43058 3.39746 8.60037C3.39746 10.5886 5.00922 12.2004 6.99746 12.2004C8.9857 12.2004 10.5975 10.5886 10.5975 8.60037C10.5975 8.43058 10.4598 8.29297 10.2901 8.29297V8.29297ZM6.99746 11.5856C5.44102 11.5856 4.17964 10.4017 4.02779 8.90777H9.96713C9.81528 10.4016 8.55406 11.5856 6.99746 11.5856Z" fill="#37352f" stroke="#37352f" stroke-width="0.1"/>
</g>
<defs>
<clipPath id="clip0_10007_14856">
<rect width="14" height="14" fill="#37352f" transform="translate(0 0.986328)"/>
</clipPath>
</defs>
</svg>

<svg xmlns="http://www.w3.org/2000/svg" width="14" height="15" fill="none"><g fill="#37352f" stroke="#37352f" clip-path="url(#a)"><path fill-rule="evenodd" stroke-width=".1" d="M5.038 2.879c-.203-.175-.152-.5.102-.584A6.007 6.007 0 0 1 13 8c0 3.308-2.692 6-6 6s-6-2.692-6-6c0-1.062.278-2.061.764-2.928a.338.338 0 0 1 .536-.064c.117.117.137.3.057.445A5.264 5.264 0 0 0 1.703 8 5.303 5.303 0 0 0 7 13.297 5.303 5.303 0 0 0 12.297 8a5.303 5.303 0 0 0-6.895-5.05.38.38 0 0 1-.364-.071Z" clip-rule="evenodd"/><path stroke-width=".3" d="M4.945 4.057H3.66v1.286a.258.258 0 0 1-.257.257.258.258 0 0 1-.258-.257V4.057H1.86a.258.258 0 0 1-.257-.257c0-.141.115-.257.257-.257h1.285V2.257a.258.258 0 0 1 .514 0v1.286h1.286c.142 0 .258.116.258.257a.258.258 0 0 1-.258.257Z"/><path stroke-width=".1" d="M8.756 7.271c.235-.235.548-.365.88-.365.333 0 .646.13.882.365a.351.351 0 1 0 .497-.497 1.937 1.937 0 0 0-1.378-.57c-.521 0-1.01.202-1.379.57a.351.351 0 1 0 .498.497ZM3.482 7.271c.235-.235.548-.365.881-.365.333 0 .646.13.881.365a.352.352 0 1 0 .497-.497 1.937 1.937 0 0 0-1.378-.57c-.52 0-1.01.202-1.378.57a.351.351 0 1 0 .497.497ZM10.29 8.293H3.705a.307.307 0 0 0-.308.307 3.6 3.6 0 1 0 7.2 0 .307.307 0 0 0-.307-.307Zm-3.293 3.293a2.984 2.984 0 0 1-2.97-2.678h5.94a2.984 2.984 0 0 1-2.97 2.678Z"/></g><defs><clipPath id="a"><path fill="#37352f" d="M0 .986h14v14H0z"/></clipPath></defs></svg>
